images/telegram.svg

<svg width="56" height="56" viewBox="0 0 56 56" fill="none" xmlns="http://www.w3.org/2000/svg">
<path fill-rule="evenodd" clip-rule="evenodd" d="M28 0C43.464 0 56 12.536 56 28C56 43.464 43.464 56 28 56C12.536 56 0 43.464 0 28C0 12.536 12.536 0 28 0ZM41.6353 15.0244C41.3568 15.0647 41.0075 15.0622 40.6983 15.1707C39.9524 15.4325 39.224 15.7433 38.491 16.0402C38.0895 16.2029 37.6951 16.3825 37.2937 16.5453L34.9992 17.4642C34.5893 17.6301 34.1843 17.8083 33.7756 17.977C33.0297 18.285 32.2818 18.5887 31.5362 18.8975C31.1354 19.0635 30.7401 19.2425 30.338 19.4054L28.5845 20.1002L27.3387 20.6281C26.7242 20.8771 26.1041 21.1121 25.4895 21.3609C25.1039 21.517 24.7269 21.6934 24.3415 21.85C23.5148 22.1859 22.6845 22.5136 21.8569 22.8474C21.5104 22.9872 21.1686 23.1388 20.8215 23.2771C20.0239 23.5949 19.2239 23.907 18.4257 24.2231C17.9991 24.392 17.5731 24.5624 17.1481 24.7352C16.5655 24.9722 15.9841 25.2122 15.4023 25.4509C15.0016 25.6154 14.6018 25.782 14.2 25.9439C13.451 26.2457 12.7008 26.545 11.9509 26.8449C11.4922 27.0282 11.0313 27.2065 10.5745 27.3944L10.1292 27.5775C9.61133 27.7943 9.10499 28.033 8.67486 28.4076C8.42951 28.6213 8.21372 28.8647 8.17514 29.2003C8.13138 29.5805 8.42577 30.0841 8.81059 30.2417C9.21854 30.4087 9.64422 30.5351 10.0652 30.6702C11.136 31.0134 12.2049 31.3629 13.2814 31.6879C14.0317 31.9144 14.7928 32.1058 15.5497 32.3106C16.2395 32.4972 16.9319 32.5225 17.6407 32.3986C18.2326 32.2952 18.7639 32.0915 19.2594 31.7526C20.0274 31.2272 20.8205 30.7375 21.5992 30.227C22.3786 29.7161 23.1534 29.1984 23.9302 28.6837C24.5854 28.2493 25.241 27.8153 25.8959 27.3803C26.5792 26.9264 27.2634 26.4737 27.9445 26.0164C28.473 25.6614 28.995 25.2971 29.5239 24.943C30.3885 24.3642 31.2471 23.7759 32.1261 23.2192C32.7541 22.8214 33.382 22.4173 34.1307 22.242C34.3401 22.1929 34.5558 22.1738 34.6433 22.3242C34.7271 22.4681 34.7361 22.7294 34.6571 22.8758C34.4431 23.2718 34.2104 23.676 33.9027 24.0014C33.2083 24.7356 32.471 25.4309 31.7389 26.1296C30.8341 26.9932 29.9206 27.8483 29.0038 28.6998C27.7708 29.845 26.5276 30.9795 25.2959 32.1263C24.7963 32.5914 24.2762 33.0441 23.8385 33.5623C23.479 33.9879 23.3939 34.5083 23.653 35.0586C23.829 35.4325 24.0976 35.7166 24.4114 35.9588C25.1215 36.5071 25.8464 37.0368 26.5706 37.5671C26.9535 37.8474 27.3428 38.1199 27.7376 38.3837C28.4333 38.8484 29.1343 39.3053 29.8352 39.7627C30.5077 40.2015 31.1839 40.635 31.8562 41.0741C32.4251 41.4455 32.982 41.8353 33.5604 42.1916C34.0795 42.5114 34.6046 42.8298 35.1569 43.0868C35.6078 43.2965 36.1026 43.4144 36.5779 43.5736C37.1673 43.7711 37.7573 43.7614 38.3004 43.4664C38.9524 43.1121 39.2909 42.4953 39.4589 41.815C39.6183 41.1689 39.6875 40.5011 39.792 39.8422C39.8435 39.5168 39.879 39.189 39.9325 38.864C40.0547 38.1231 40.1848 37.3836 40.3087 36.6431C40.3548 36.3679 40.3885 36.0906 40.4351 35.8155C40.5269 35.2754 40.632 34.7375 40.7165 34.1964C40.8051 33.6285 40.8653 33.0563 40.9573 32.4889C41.118 31.4973 41.2961 30.5083 41.4611 29.5172C41.5139 29.2004 41.5393 28.8791 41.5918 28.5622C41.7132 27.8294 41.8501 27.0992 41.9679 26.366C42.0563 25.8156 42.1188 25.2612 42.2032 24.7101C42.3307 23.8761 42.469 23.0435 42.5995 22.2099C42.6779 21.7088 42.7499 21.2066 42.8256 20.7052C42.9566 19.8368 43.0928 18.9691 43.2176 18.0999C43.2729 17.7146 43.295 17.3247 43.3514 16.9398C43.4188 16.4793 43.3234 16.0482 43.0906 15.6599C42.7803 15.1421 42.2456 15.0517 41.6353 15.0244Z" fill="white"/>
</svg>

<svg width="56" height="56" fill="none" xmlns="http://www.w3.org/2000/svg"><path fill-rule="evenodd" clip-rule="evenodd" d="M28 0c15.464 0 28 12.536 28 28S43.464 56 28 56 0 43.464 0 28 12.536 0 28 0zm13.635 15.024c-.278.04-.627.038-.937.147-.746.261-1.474.572-2.207.87-.401.162-.796.341-1.197.504l-2.295.92c-.41.165-.815.343-1.223.512-.746.308-1.494.612-2.24.92-.4.167-.796.346-1.198.508l-1.754.695-1.245.528c-.615.25-1.235.484-1.85.733-.385.156-.762.332-1.148.489-.826.336-1.657.664-2.484.997-.347.14-.688.292-1.035.43-.798.318-1.598.63-2.396.946-.427.169-.853.34-1.278.512-.582.237-1.164.477-1.746.716-.4.164-.8.331-1.202.493-.749.302-1.5.601-2.25.9-.458.184-.919.362-1.375.55l-.446.184c-.518.216-1.024.455-1.454.83-.245.213-.461.457-.5.792-.044.38.25.884.636 1.042.408.167.833.293 1.254.428 1.071.343 2.14.693 3.216 1.018.75.226 1.512.418 2.269.623.69.186 1.382.212 2.09.088a4.027 4.027 0 001.62-.646c.767-.526 1.56-1.015 2.34-1.526.779-.51 1.553-1.029 2.33-1.543l1.966-1.304c.683-.454 1.367-.906 2.049-1.364.528-.355 1.05-.719 1.579-1.073.864-.579 1.723-1.167 2.602-1.724.628-.398 1.256-.802 2.005-.977.21-.05.425-.068.512.082a.654.654 0 01.014.552c-.214.396-.447.8-.754 1.125-.695.735-1.432 1.43-2.164 2.129-.905.863-1.818 1.718-2.735 2.57-1.233 1.145-2.476 2.28-3.708 3.426-.5.465-1.02.918-1.457 1.436-.36.426-.445.946-.186 1.497.176.373.445.658.758.9.71.548 1.435 1.078 2.16 1.608.382.28.772.553 1.167.817.695.464 1.396.921 2.097 1.379.673.439 1.349.872 2.021 1.311.57.372 1.126.761 1.704 1.118.52.32 1.045.638 1.597.895.45.21.946.327 1.42.487.59.197 1.18.187 1.723-.108.652-.354.99-.97 1.159-1.651.16-.646.228-1.314.333-1.973.051-.325.087-.653.14-.978.123-.74.253-1.48.377-2.22.046-.276.08-.553.126-.828.092-.54.197-1.079.282-1.62.088-.567.148-1.14.24-1.707.161-.992.34-1.98.504-2.972.053-.317.078-.638.13-.955.122-.733.26-1.463.377-2.196.088-.55.15-1.105.235-1.656.128-.834.266-1.666.396-2.5.079-.501.15-1.003.227-1.505.13-.868.267-1.736.392-2.605.055-.385.077-.775.133-1.16a1.9 1.9 0 00-.26-1.28c-.31-.518-.845-.608-1.456-.636z" fill="#fff"/></svg>
